X: 6661
T: Ceilier, The
R: reel
M: 4/4
K: Gmajor
dGBd cAAc|A~B2d gfde|Bcde ed e/f/g|fdcB cAAc|
B2DA ~G3B|DGBd cA~A2|d3e ~f2eg|fdcA G2Bc:|
|:dgbg ~g2bg|~g2bg dcBc|de=fe d3c|de=fe dcBc|
dg f/g/a g2~g2|abag fdde|=f2ed cA~A2|B/c/d cA G2Bc:|

